packages/ui/src/icon/icon.tag.svg

<?xml version="1.0" encoding="utf-8"?><!-- Uploaded to: SVG Repo, www.svgrepo.com, Generator: SVG Repo Mixer Tools -->
<svg fill="#000000" width="800px" height="800px" viewBox="0 0 32 32" version="1.1" xmlns="http://www.w3.org/2000/svg">
    <path d="M31.999 13.008l-0-10.574c0-1.342-1.092-2.434-2.433-2.434h-10.793c-0.677 0-1.703 0-2.372 0.67l-15.81 15.811c-0.38 0.38-0.59 0.884-0.59 1.421 0 0.538 0.209 1.043 0.589 1.423l12.088 12.085c0.379 0.381 0.883 0.59 1.421 0.59s1.042-0.209 1.421-0.589l15.811-15.812c0.678-0.677 0.674-1.65 0.67-2.591zM29.915 14.186l-15.826 15.811-12.086-12.101 15.794-15.797c0.159-0.099 0.732-0.099 0.968-0.099l0.45 0.002 10.35-0.002c0.239 0 0.433 0.195 0.433 0.434v10.582c0.002 0.38 0.004 1.017-0.084 1.169zM24 4c-2.209 0-4 1.791-4 4s1.791 4 4 4c2.209 0 4-1.791 4-4s-1.791-4-4-4zM24 10c-1.105 0-2-0.896-2-2s0.895-2 2-2 2 0.896 2 2-0.895 2-2 2z"></path>
</svg>

<svg xmlns="http://www.w3.org/2000/svg" viewBox="0 0 32 32">
    <path
        d="M31.999 13.008V2.434A2.437 2.437 0 0 0 29.566 0H18.773c-.677 0-1.703 0-2.372.67L.591 16.481c-.38.38-.59.884-.59 1.421 0 .538.209 1.043.589 1.423L12.678 31.41c.379.381.883.59 1.421.59s1.042-.209 1.421-.589l15.811-15.812c.678-.677.674-1.65.67-2.591zm-2.084 1.178L14.089 29.997 2.003 17.896 17.797 2.099C17.956 2 18.529 2 18.765 2l.45.002L29.565 2c.239 0 .433.195.433.434v10.582c.002.38.004 1.017-.084 1.169zM24 4a4 4 0 1 0 0 8 4 4 0 0 0 0-8zm0 6a2 2 0 1 1 0-4 2 2 0 0 1 0 4z" />
</svg>
